src/Assets/Icons/ResidentIcon.svg

<svg width="139" height="32" viewBox="0 0 139 32" fill="none" xmlns="http://www.w3.org/2000/svg">
<path d="M3.26311 25.4815C2.26475 24.9032 1.32271 24.3571 0.318523 23.7749C0.318523 23.5231 0.318528 23.2634 0.318523 23.0037C0.318479 18.342 0.32964 13.6803 0.30473 9.01874C0.301482 8.41082 0.483184 8.08476 1.02406 7.77713C5.09423 5.46205 9.14605 3.11446 13.188 0.750394C13.6637 0.472176 14.0178 0.483731 14.4772 0.751237C18.5753 3.1372 22.6834 5.5061 26.7915 7.87489C27.1118 8.0596 27.3617 8.23896 27.3603 8.67555C27.348 12.5098 27.3532 16.3441 27.3532 20.271C27.117 20.1777 26.9338 20.1272 26.7722 20.0378C25.8448 19.5249 24.9314 18.986 23.995 18.4904C23.4778 18.2167 23.242 17.8872 23.258 17.2523C23.3092 15.2178 23.2676 13.1811 23.2862 11.1455C23.2901 10.7146 23.1644 10.4551 22.7745 10.2324C19.8093 8.53932 16.8581 6.82187 13.831 5.07064C10.7213 6.87111 7.59492 8.68128 4.43626 10.5101C4.42577 10.7172 4.40682 10.9185 4.4067 11.1198C4.40485 14.3063 4.42172 17.4929 4.39051 20.679C4.38484 21.2581 4.55766 21.5787 5.06128 21.8645C7.97913 23.5202 10.8773 25.2106 13.8272 26.9154C14.3952 26.5865 14.9686 26.2887 15.5045 25.9342C16.0009 25.6058 16.4108 25.5617 16.9523 25.911C17.9855 26.5775 19.0806 27.148 20.2727 27.8283C19.9035 28.0572 19.6661 28.2123 19.4213 28.3548C17.7671 29.3178 16.1009 30.2607 14.4626 31.2501C13.9902 31.5355 13.6396 31.5119 13.172 31.237C9.8975 29.3127 6.60568 27.4179 3.26311 25.4815Z" fill="#199976"/>
<path d="M22.7661 25.1982C19.9528 23.5807 17.2068 21.9783 14.438 20.4162C13.9144 20.1208 13.6572 19.8152 13.6956 19.184C13.7545 18.2145 13.7397 17.2376 13.6994 16.2662C13.6761 15.7047 13.8088 15.3464 14.3575 15.0819C15.0934 14.7271 15.7734 14.2563 16.596 13.7645C15.6279 13.1956 14.7545 12.6823 13.8097 12.1271C12.8721 12.6689 11.9117 13.2239 10.8974 13.81C10.8974 16.507 10.8974 19.2127 10.8974 21.987C10.6645 21.9584 10.4798 21.985 10.3514 21.9124C9.19852 21.2598 8.05768 20.586 6.90802 19.9277C6.61836 19.7618 6.51366 19.5343 6.5149 19.2049C6.52412 16.7575 6.52549 14.3101 6.51631 11.8627C6.51505 11.527 6.63753 11.313 6.92257 11.1488C9.06464 9.91503 11.2037 8.67607 13.3411 7.43416C13.65 7.25469 13.9243 7.24486 14.2475 7.43316C16.3837 8.67784 18.527 9.91036 20.674 11.1363C20.9744 11.3078 21.0519 11.537 21.0479 11.8623C21.0336 13.0416 21.0236 14.2216 21.0514 15.4005C21.0615 15.8286 20.868 16.0195 20.5228 16.2084C19.6808 16.669 18.8637 17.1753 17.8826 17.754C21.1016 19.62 24.184 21.4067 27.405 23.2737C26.7762 23.6465 26.3062 23.9282 25.8332 24.2047C25.2233 24.5613 24.5816 24.8726 24.0089 25.2811C23.5572 25.6034 23.2065 25.5417 22.7661 25.1982Z" fill="#199976"/>
<path d="M43.2401 23.2073C43.24 22.0598 43.2469 20.9975 43.2378 19.9354C43.2292 18.9264 42.922 18.6099 41.9198 18.6004C40.5953 18.5879 39.2706 18.5973 37.8482 18.5973C37.8482 20.6723 37.8482 22.6887 37.8482 24.7496C36.7003 24.7496 35.6495 24.7496 34.5968 24.7496C34.4068 24.1403 34.324 9.99977 34.5081 8.09981C34.7166 8.07685 34.9398 8.03143 35.1632 8.03087C37.3466 8.02534 39.5311 7.98497 41.7131 8.04166C43.2292 8.08104 44.691 8.35582 45.836 9.52868C47.7579 11.4972 47.3895 14.9922 45.0787 16.4596C44.9182 16.5615 44.7697 16.6823 44.6298 16.784C44.6638 16.8724 44.6701 16.9213 44.6857 16.9244C46.0423 17.2003 46.5777 18.1384 46.6011 19.4102C46.6326 21.1203 46.5998 22.8317 46.5905 24.5425C46.5902 24.5937 46.5444 24.6446 46.4957 24.7458C45.4698 24.7458 44.4189 24.7458 43.2401 24.7458C43.2401 24.2684 43.2401 23.7804 43.2401 23.2073ZM39.1311 11.0373C38.7039 11.044 38.2767 11.0508 37.8595 11.0573C37.8595 12.6217 37.8595 14.0553 37.8595 15.5666C39.1919 15.5666 40.4793 15.5733 41.7666 15.5595C41.9659 15.5574 42.1691 15.4746 42.3622 15.4057C43.2187 15.0997 43.8496 14.1759 43.7681 13.2709C43.6511 11.973 43.0532 11.2972 42.1121 11.1787C41.1844 11.0618 40.2397 11.079 39.1311 11.0373Z" fill="#199976"/>
<path d="M49.0725 14.7358C49.0725 12.4692 49.0725 10.2912 49.0725 8.07465C52.7077 8.07465 56.2666 8.07465 59.8853 8.07465C59.8853 9.03424 59.8853 9.99042 59.8853 11.0205C57.4607 11.0205 55.0251 11.0205 52.5197 11.0205C52.5197 12.3354 52.5197 13.5792 52.5197 14.8864C54.7463 14.8864 56.9496 14.8864 59.194 14.8864C59.194 15.9081 59.194 16.8675 59.194 17.8956C56.9544 17.8956 54.7533 17.8956 52.5013 17.8956C52.5013 19.2156 52.5013 20.4675 52.5013 21.7824C55.0049 21.7824 57.4751 21.7824 60.0016 21.7824C60.0016 22.7949 60.0016 23.7453 60.0016 24.7496C56.3876 24.7496 52.8018 24.7496 49.1933 24.7496C49.1928 24.7493 49.1649 24.7385 49.1483 24.7185C49.1301 24.6966 49.1115 24.6661 49.1114 24.6392C49.0973 21.3676 49.085 18.096 49.0725 14.7358Z" fill="#199976"/>
<path d="M73.6542 16.2743C75.8977 18.6728 75.2194 22.4931 72.2302 23.8983C69.6634 25.105 67.0087 25.0434 64.5086 23.6205C62.874 22.6903 62.1314 21.1465 62.0127 19.2949C61.9901 18.943 62.0094 18.5884 62.0094 18.1738C63.0772 18.1738 64.121 18.1738 65.2297 18.1738C65.2412 18.3898 65.2597 18.616 65.2642 18.8424C65.2942 20.3707 66.0658 21.3566 67.5648 21.6355C68.6186 21.8315 69.6856 21.8198 70.6686 21.2853C71.6399 20.7571 72.016 19.5893 71.4421 18.7437C71.224 18.4223 70.8706 18.1228 70.5124 17.9809C69.7787 17.6902 68.998 17.5195 68.2404 17.2872C67.1462 16.9516 66.0201 16.6886 64.9706 16.2454C62.9379 15.387 62.32 13.8039 62.3794 11.9463C62.4616 9.3722 64.1548 7.85459 66.553 7.42208C68.057 7.15083 69.6025 7.17414 71.096 7.68724C73.1167 8.38147 74.3035 9.87972 74.4739 11.9952C74.5111 12.4569 74.5566 12.9179 74.6048 13.4505C73.4857 13.4505 72.4422 13.4505 71.2766 13.4505C71.2766 13.133 71.2933 12.8181 71.2737 12.5056C71.1999 11.3326 70.6637 10.6778 69.5392 10.343C68.6014 10.0638 67.6859 10.1261 66.772 10.4599C66.0883 10.7096 65.6981 11.1982 65.6341 11.8978C65.5697 12.6006 65.8842 13.1849 66.4947 13.5249C66.95 13.7785 67.4593 13.9613 67.9661 14.0908C69.39 14.4545 70.8486 14.7057 72.1808 15.3593C72.6788 15.6036 73.1311 15.9407 73.6542 16.2743Z" fill="#199976"/>
<path d="M79.3405 7.9812C79.6549 7.99235 79.8856 8.0035 80.1744 8.01746C80.1744 13.5763 80.1744 19.1002 80.1744 24.7496C79.6528 24.7496 79.1337 24.7496 78.6145 24.7496C78.0895 24.7496 77.5645 24.7496 76.9829 24.7496C76.9829 19.1498 76.9829 13.6258 76.9829 7.9812C77.7471 7.9812 78.502 7.9812 79.3405 7.9812Z" fill="#199976"/>
<path d="M90.0397 8.05807C91.6628 8.15877 93.0692 8.5944 94.2159 9.68444C95.4971 10.9023 95.9276 12.4734 95.9854 14.1623C96.0359 15.6349 96.0363 17.1121 95.9857 18.5847C95.9185 20.5387 95.3607 22.2907 93.7 23.5267C92.6167 24.333 91.3556 24.6712 90.0608 24.7101C87.5566 24.7853 85.0486 24.7308 82.5421 24.7268C82.4585 24.7267 82.375 24.6909 82.1746 24.645C82.1746 24.2028 82.1746 23.7417 82.1746 23.2807C82.1746 22.8439 82.1746 22.4071 82.1746 21.9018C82.9178 21.9018 83.589 21.9018 84.2373 21.9018C84.4512 21.2296 84.5257 12.5154 84.3406 10.9127C83.6597 10.9127 82.9657 10.9127 82.2251 10.9127C82.2251 9.91243 82.2251 9.01058 82.2251 8.0613C82.3565 8.03053 82.4922 7.97137 82.6281 7.97101C84.9281 7.96486 87.2282 7.96464 89.5282 7.9689C89.6721 7.96916 89.8158 8.01712 90.0397 8.05807ZM87.6658 18.6507C87.6658 19.6434 87.6658 20.636 87.6658 21.6549C88.5427 21.6549 89.3407 21.7522 90.1055 21.6341C91.5773 21.4068 92.438 20.5453 92.5965 19.072C92.7403 17.7346 92.7242 16.3779 92.7361 15.0293C92.741 14.4766 92.6815 13.913 92.5682 13.3719C92.3397 12.2811 91.6821 11.5032 90.6065 11.195C89.6783 10.929 88.7122 10.8949 87.6659 11.036C87.6659 13.5441 87.6659 16.0089 87.6658 18.6507Z" fill="#199976"/>
<path d="M98.0235 17.2026C98.0235 14.1098 98.0235 11.1057 98.0235 8.06213C101.63 8.06213 105.16 8.06213 108.807 8.06213C108.852 9.01626 108.823 9.97353 108.824 11.0248C106.285 11.0248 103.794 11.0248 101.266 11.0248C101.266 12.3466 101.266 13.5749 101.266 14.8655C103.546 14.8655 105.782 14.8655 108.072 14.8655C108.072 15.8786 108.072 16.8297 108.072 17.8542C105.81 17.8542 103.58 17.8542 101.285 17.8542C101.285 19.175 101.285 20.4244 101.285 21.7377C103.789 21.7377 106.285 21.7377 108.753 21.7377C109.034 22.3817 109.07 23.8583 108.842 24.7496C105.268 24.7496 101.684 24.7496 98.0234 24.7496C98.0234 22.2378 98.0234 19.7645 98.0235 17.2026Z" fill="#199976"/>
<path d="M110.991 13.1472C110.992 11.4105 110.992 9.76231 110.992 8.0777C113.039 8.0777 115.008 8.0777 117.064 8.0777C118.227 12.8551 119.23 17.6929 120.398 22.4899C120.465 22.4798 120.531 22.4696 120.597 22.4595C120.597 17.6983 120.597 12.9372 120.597 8.05525C121.709 8.02455 122.753 8.04563 123.863 8.0433C123.863 13.6353 123.863 19.1629 123.863 24.7496C121.861 24.7496 119.868 24.7496 117.771 24.7496C116.703 20.0751 115.628 15.3676 114.567 10.728C114.422 10.6752 114.391 10.6522 114.37 10.6595C114.347 10.6677 114.329 10.7012 114.318 10.7275C114.295 10.7796 114.268 10.8331 114.261 10.8883C114.249 10.9756 114.247 11.0647 114.247 11.1531C114.239 15.6377 114.232 20.1223 114.223 24.607C114.223 24.6337 114.199 24.6604 114.158 24.7478C113.148 24.7478 112.109 24.7478 110.991 24.7478C110.991 20.899 110.991 17.0674 110.991 13.1472Z" fill="#199976"/>
<path d="M130.697 18.6324C130.697 16.1004 130.697 13.6571 130.697 11.0916C129.074 10.9998 127.495 11.0891 125.863 11.0338C125.863 10.0477 125.863 9.09855 125.863 8.09192C130.138 8.09192 134.396 8.09192 138.695 8.09192C138.695 9.04003 138.695 9.97808 138.695 11.0245C137.175 11.0245 135.634 11.0245 133.975 11.0245C133.968 12.2642 133.959 13.4011 133.956 14.538C133.952 15.658 133.955 16.778 133.955 17.8981C133.955 19.0476 133.955 20.1971 133.955 21.3466C133.955 22.4633 133.955 23.58 133.955 24.7496C132.876 24.7496 131.859 24.7496 130.711 24.7496C130.68 23.7578 130.702 22.7418 130.698 21.7273C130.694 20.7252 130.697 19.7231 130.697 18.6324Z" fill="#199976"/>
</svg>

<svg width="139" height="32" fill="none" xmlns="http://www.w3.org/2000/svg"><path d="M3.263 25.482.32 23.774v-.771c0-4.662.01-9.324-.014-13.985-.004-.608.178-.934.72-1.242C5.094 5.462 9.145 3.114 13.187.75c.476-.278.83-.266 1.29.001 4.097 2.386 8.205 4.755 12.313 7.124.32.185.57.364.57.8-.013 3.835-.008 7.67-.008 11.596-.236-.093-.42-.144-.58-.233-.928-.513-1.842-1.052-2.778-1.548-.517-.273-.753-.603-.737-1.238.051-2.034.01-4.07.028-6.106.004-.431-.122-.69-.512-.914-2.965-1.693-5.916-3.41-8.943-5.161l-9.395 5.44c-.01.206-.03.408-.03.609-.001 3.186.016 6.373-.015 9.559-.006.58.167.9.67 1.186 2.918 1.655 5.816 3.346 8.766 5.05.568-.328 1.142-.626 1.678-.98.496-.33.906-.373 1.447-.024 1.033.666 2.129 1.237 3.32 1.917-.368.23-.606.384-.85.527-1.655.963-3.321 1.906-4.96 2.895-.472.285-.822.262-1.29-.013-3.274-1.924-6.566-3.82-9.909-5.755Z" fill="#199976"/><path d="M22.766 25.198c-2.813-1.617-5.56-3.22-8.328-4.782-.524-.295-.78-.6-.742-1.232.059-.97.044-1.946.003-2.918-.023-.561.11-.92.659-1.184.735-.355 1.415-.826 2.238-1.318l-2.786-1.637-2.913 1.683v8.177c-.232-.029-.417-.002-.546-.075-1.152-.652-2.293-1.326-3.443-1.984-.29-.166-.394-.394-.393-.723.01-2.447.01-4.895.001-7.342-.001-.336.122-.55.407-.714 2.142-1.234 4.28-2.473 6.418-3.715.309-.18.583-.19.907 0a847.821 847.821 0 0 0 6.426 3.702c.3.172.378.401.374.726-.014 1.18-.024 2.36.003 3.538.01.429-.183.62-.528.808-.842.461-1.66.967-2.64 1.546l9.522 5.52c-.629.372-1.099.654-1.572.93-.61.357-1.251.669-1.824 1.077-.452.322-.803.26-1.243-.083ZM43.24 23.207c0-1.147.007-2.21-.002-3.272-.009-1.009-.316-1.325-1.318-1.335-1.325-.012-2.65-.003-4.072-.003v6.153h-3.251c-.19-.61-.273-14.75-.089-16.65.209-.023.432-.069.655-.07 2.184-.005 4.368-.045 6.55.012 1.516.039 2.978.314 4.123 1.487 1.922 1.968 1.553 5.463-.757 6.93-.16.102-.31.223-.45.325.035.088.041.137.057.14 1.356.276 1.892 1.214 1.915 2.486.032 1.71-.001 3.422-.01 5.133 0 .05-.047.102-.095.203H43.24v-1.539Zm-4.109-12.17-1.272.02v4.51c1.333 0 2.62.006 3.908-.008.199-.002.402-.084.595-.153.857-.306 1.488-1.23 1.406-2.135-.117-1.298-.715-1.974-1.656-2.092-.928-.117-1.872-.1-2.98-.142ZM49.072 14.736V8.075h10.813v2.946H52.52v3.865h6.674v3.01h-6.693v3.886h7.5v2.968H49.194s-.028-.012-.045-.032c-.018-.021-.037-.052-.037-.079-.014-3.271-.026-6.543-.038-9.903ZM73.654 16.274c2.244 2.399 1.565 6.22-1.424 7.624-2.567 1.207-5.221 1.145-7.721-.277-1.635-.93-2.378-2.474-2.496-4.326-.023-.352-.004-.707-.004-1.121h3.22c.012.216.03.442.035.668.03 1.529.802 2.515 2.3 2.794 1.055.195 2.122.184 3.105-.35.97-.529 1.347-1.697.773-2.542a2.16 2.16 0 0 0-.93-.763c-.733-.29-1.514-.462-2.272-.694-1.094-.335-2.22-.598-3.27-1.042-2.032-.858-2.65-2.441-2.59-4.299.082-2.574 1.775-4.091 4.173-4.524 1.504-.271 3.05-.248 4.543.265 2.02.694 3.207 2.193 3.378 4.308.037.462.083.923.13 1.456h-3.327c0-.318.016-.633-.003-.945-.074-1.173-.61-1.828-1.735-2.163-.938-.28-1.853-.217-2.767.117-.684.25-1.074.738-1.138 1.438-.064.703.25 1.287.86 1.627.456.253.965.436 1.472.566 1.424.364 2.883.615 4.215 1.268.498.245.95.582 1.473.915ZM79.34 7.981c.315.011.546.023.834.036V24.75h-3.191V7.98h2.358ZM90.04 8.058c1.623.1 3.03.536 4.176 1.626 1.281 1.218 1.712 2.79 1.77 4.478.05 1.473.05 2.95 0 4.423-.068 1.954-.625 3.706-2.286 4.942-1.083.806-2.344 1.144-3.64 1.183-2.503.075-5.011.02-7.518.017-.084 0-.167-.036-.367-.082V21.901h2.062c.214-.671.289-9.386.104-10.988h-2.116V8.06c.132-.03.267-.09.403-.09 2.3-.006 4.6-.006 6.9-.002.144 0 .288.048.512.09Zm-2.374 10.593v3.004c.877 0 1.675.097 2.44-.02 1.471-.228 2.332-1.09 2.49-2.563.144-1.337.128-2.694.14-4.043a7.811 7.811 0 0 0-.168-1.657c-.228-1.09-.886-1.869-1.962-2.177-.928-.266-1.894-.3-2.94-.159v7.615ZM98.023 17.203v-9.14h10.784c.045.953.016 1.91.017 2.962h-7.558v3.84h6.806v2.99h-6.787v3.883h7.468c.281.644.317 2.12.089 3.012H98.023v-7.547ZM110.991 13.147l.001-5.07h6.072c1.163 4.778 2.166 9.616 3.334 14.413l.199-.03V8.054c1.112-.03 2.156-.01 3.266-.012V24.75h-6.092l-3.204-14.022c-.145-.053-.176-.076-.197-.069-.023.009-.041.042-.052.068-.023.053-.05.106-.057.161a1.949 1.949 0 0 0-.014.265c-.008 4.485-.015 8.97-.024 13.454 0 .027-.024.053-.065.14h-3.167v-11.6ZM130.697 18.632v-7.54c-1.623-.092-3.202-.003-4.834-.058V8.092h12.832v2.932h-4.72c-.007 1.24-.016 2.377-.019 3.514-.004 1.12-.001 2.24-.001 3.36v6.852h-3.244c-.031-.992-.009-2.008-.013-3.023-.004-1.002-.001-2.004-.001-3.095Z" fill="#199976"/></svg>
